web/wp-content/themes/cncf-twenty-two/images/reports/kccnc-na-22/icon-mask.svg

<svg fill="none" height="22" viewBox="0 0 33 22" width="33" xmlns="http://www.w3.org/2000/svg" xmlns:xlink="http://www.w3.org/1999/xlink"><clipPath id="a"><path d="m.196289.560547h32.1593v21h-32.1593z"/></clipPath><g clip-path="url(#a)" fill="#1e1d40"><path d="m32.3555 5.77113c0-.85106-.3847-1.50943-1.1136-1.90731-.7455-.40679-1.541-.3836-2.2976.06602-.1425.08564-.2849.17128-.4274.25871-.2849.17485-.5808.35327-.8768.51741-.0537.03033-.148.03926-.1776.02855l-.6401-.23551c-.9287-.34078-1.8906-.69227-2.8101-1.08301-1.3708-.58165-2.7508-1.20255-4.0865-1.80382-.381-.17129-.7603-.34257-1.1414-.51385-1.726-.774345-3.463-.711898-5.1594.18377-2.9081 1.53619-5.66639 2.66737-8.43389 3.46134-.14244.04104-.19979.02498-.28119-.02855-.18499-.11954-.37553-.23194-.56053-.34078-.20349-.11954-.41253-.24265-.60863-.37289-.68262-.45319-1.48364-.54775-2.20142-.25693-.653025.26406-1.137708.81181-1.282003 1.44163l-.061048.06067v6.36062l.0074.0607c.220142.9206.912021 1.4006 1.415201 1.6825.45693.2569.91387.5353 1.356.8047.33484.2034.68078.4139 1.02486.6155.1406.0821.1591.1267.1517.2498-.0481.9367.33854 1.7307 1.14881 2.3605 2.00348 1.5558 4.25115 2.7155 6.68194 3.4453 1.6354.4906 3.1801.7351 4.6711.7351.8787 0 1.7371-.0857 2.5825-.2534 3.0062-.6013 5.6886-1.9269 8.2045-4.0555.6512-.5513.973-1.2471.9564-2.0714-.0019-.1017.0111-.1338.135-.207.6531-.3854 1.3135-.785 1.9499-1.1704l.7732-.4675c.7289-.4389 1.0989-1.083 1.0989-1.9108v-5.65417zm-3.9551.33364c0-.09991.0129-.11062.0777-.14808.3681-.20876.7622-.44427 1.2413-.74223.1572-.09813.2997-.1463.4403-.1463.1073 0 .2127.02854.3219.08742.2312.1249.3348.32116.3348.63696-.0037 1.87519-.0037 3.75038 0 5.62556 0 .3658-.1332.4942-.2349.5567-.5994.3764-1.2006.7404-1.837 1.124-.111.0678-.2239.1356-.3386.2034v-3.1955c0-1.33455 0-2.67092-.0037-4.00549zm-1.5336.05531c-.0056 2.38012-.0056 4.76022-.0056 7.13862v1.909c0 .3712-.1369.6673-.4162.9046-2.6713 2.2713-5.5183 3.5506-8.7039 3.911-1.5632.1766-3.1875-.0036-5.1151-.5709-2.3883-.7012-4.55084-1.8074-6.42482-3.2865-.34964-.2748-.51244-.5835-.51244-.9706 0-2.8815 0-5.763 0-8.64448v-.38895c.1813-.05888.36259-.11597.54389-.17485.52168-.16772 1.06001-.339 1.58724-.5192 2.09597-.71547 4.21603-1.6486 6.48033-2.8565 1.3042-.69584 2.6213-.72439 4.0254-.08921 1.9647.88853 3.9238 1.73602 6.2602 2.73695.5828.24979 1.1877.46211 1.7723.66908.1517.05352.3034.10705.455.16058.0278.0107.0426.01784.0481.01784 0 .00714.0037.02319.0037.04996zm-24.80578-1.00985c.09805-.05531.2072-.08386.31634-.08386.10915 0 .22939.03033.33854.08921.41254.22303.84542.48352 1.39855.84036.0111.02319.0259.07315.0259.1124.00555 1.75565.00555 3.5113.00555 5.26696v1.736l-.31819-.1909c-.63638-.3836-1.23576-.7458-1.83698-1.1187-.1665-.1035-.2516-.2676-.2516-.4871v-1.0134c-.0037-1.50943-.0074-3.06881.00185-4.60322 0-.2373.11655-.43713.31634-.54954z"/><path d="m24.4119 8.23782c-5.4111 1.82348-10.8851 1.82348-16.27206 0l-.25899-.08743-.52538 1.39703.26454.08921c2.87479.97057 5.76809 1.45587 8.65959 1.45587 2.8914 0 5.7847-.4853 8.6539-1.45587l.2646-.08921-.5291-1.39525-.259.08743z"/><path d="m24.4119 12.5269c-5.4111 1.8234-10.8851 1.8234-16.27206 0l-.25899-.0874-.52538 1.397.26454.0892c2.87479.9706 5.76809 1.4559 8.65959 1.4559 2.8914 0 5.7828-.4853 8.6521-1.4559l.2645-.0892-.5272-1.3953-.259.0875z"/></g></svg>

<svg width="33" height="22" viewBox="0 0 33 22" fill="none" xmlns="http://www.w3.org/2000/svg">
<g clip-path="url(#clip0_3685_208)">
<path d="M32.3555 5.77113C32.3555 4.92007 31.9708 4.2617 31.2419 3.86382C30.4964 3.45703 29.7009 3.48022 28.9443 3.92984C28.8018 4.01548 28.6594 4.10112 28.5169 4.18855C28.232 4.3634 27.9361 4.54182 27.6401 4.70596C27.5864 4.73629 27.4921 4.74522 27.4625 4.73451L26.8224 4.499C25.8937 4.15822 24.9318 3.80673 24.0123 3.41599C22.6415 2.83434 21.2615 2.21344 19.9258 1.61217C19.5448 1.44088 19.1655 1.2696 18.7844 1.09832C17.0584 0.323975 15.3214 0.386422 13.625 1.28209C10.7169 2.81828 7.95861 3.94946 5.19111 4.74343C5.04867 4.78447 4.99132 4.76841 4.90992 4.71488C4.72493 4.59534 4.53439 4.48294 4.34939 4.3741C4.1459 4.25456 3.93686 4.13145 3.74076 4.00121C3.05814 3.54802 2.25712 3.45346 1.53934 3.74428C0.886315 4.00834 0.401632 4.55609 0.257337 5.18591L0.196289 5.24658V11.6072L0.203689 11.6679C0.423831 12.5885 1.11571 13.0685 1.61889 13.3504C2.07582 13.6073 2.53276 13.8857 2.97489 14.1551C3.30973 14.3585 3.65567 14.569 3.99975 14.7706C4.14035 14.8527 4.15885 14.8973 4.15145 15.0204C4.10335 15.9571 4.48999 16.7511 5.30026 17.3809C7.30374 18.9367 9.55141 20.0964 11.9822 20.8262C13.6176 21.3168 15.1623 21.5613 16.6533 21.5613C17.532 21.5613 18.3904 21.4756 19.2358 21.3079C22.242 20.7066 24.9244 19.381 27.4403 17.2524C28.0915 16.7011 28.4133 16.0053 28.3967 15.181C28.3948 15.0793 28.4078 15.0472 28.5317 14.974C29.1848 14.5886 29.8452 14.189 30.4816 13.8036L31.2548 13.3361C31.9837 12.8972 32.3537 12.2531 32.3537 11.4253V5.77113H32.3555ZM28.4004 6.10477C28.4004 6.00486 28.4133 5.99415 28.4781 5.95669C28.8462 5.74793 29.2403 5.51242 29.7194 5.21446C29.8766 5.11633 30.0191 5.06816 30.1597 5.06816C30.267 5.06816 30.3724 5.0967 30.4816 5.15558C30.7128 5.28048 30.8164 5.47674 30.8164 5.79254C30.8127 7.66773 30.8127 9.54292 30.8164 11.4181C30.8164 11.7839 30.6832 11.9123 30.5815 11.9748C29.9821 12.3512 29.3809 12.7152 28.7445 13.0988C28.6335 13.1666 28.5206 13.2344 28.4059 13.3022V10.1067C28.4059 8.77215 28.4059 7.43578 28.4022 6.10121L28.4004 6.10477ZM26.8668 6.16008C26.8612 8.5402 26.8612 10.9203 26.8612 13.2987V15.2077C26.8612 15.5789 26.7243 15.875 26.445 16.1123C23.7737 18.3836 20.9267 19.6629 17.7411 20.0233C16.1779 20.1999 14.5536 20.0197 12.626 19.4524C10.2377 18.7512 8.07516 17.645 6.20118 16.1659C5.85154 15.8911 5.68874 15.5824 5.68874 15.1953C5.68874 12.3138 5.68874 9.4323 5.68874 6.55082V6.16187C5.87004 6.10299 6.05133 6.0459 6.23263 5.98702C6.75431 5.8193 7.29264 5.64802 7.81987 5.46782C9.91584 4.75235 12.0359 3.81922 14.3002 2.61132C15.6044 1.91548 16.9215 1.88693 18.3256 2.52211C20.2903 3.41064 22.2494 4.25813 24.5858 5.25906C25.1686 5.50885 25.7735 5.72117 26.3581 5.92814C26.5098 5.98166 26.6615 6.03519 26.8131 6.08872C26.8409 6.09942 26.8557 6.10656 26.8612 6.10656C26.8612 6.1137 26.8649 6.12975 26.8649 6.15652L26.8668 6.16008ZM2.06102 5.15023C2.15907 5.09492 2.26822 5.06637 2.37736 5.06637C2.48651 5.06637 2.60675 5.0967 2.7159 5.15558C3.12844 5.37861 3.56132 5.6391 4.11445 5.99594C4.12555 6.01913 4.14035 6.06909 4.14035 6.10834C4.1459 7.86399 4.1459 9.61964 4.1459 11.3753V13.1113L3.82771 12.9204C3.19133 12.5368 2.59195 12.1746 1.99073 11.8017C1.82423 11.6982 1.73913 11.5341 1.73913 11.3146V10.3012C1.73543 8.79177 1.73173 7.23239 1.74098 5.69798C1.74098 5.46068 1.85753 5.26085 2.05732 5.14844L2.06102 5.15023Z" fill="#1E1D40"/>
<path d="M24.4119 8.23782C19.0008 10.0613 13.5268 10.0613 8.13984 8.23782L7.88085 8.15039L7.35547 9.54742L7.62001 9.63663C10.4948 10.6072 13.3881 11.0925 16.2796 11.0925C19.171 11.0925 22.0643 10.6072 24.9335 9.63663L25.1981 9.54742L24.669 8.15217L24.41 8.2396L24.4119 8.23782Z" fill="#1E1D40"/>
<path d="M24.4119 12.5269C19.0008 14.3503 13.5268 14.3503 8.13984 12.5269L7.88085 12.4395L7.35547 13.8365L7.62001 13.9257C10.4948 14.8963 13.3881 15.3816 16.2796 15.3816C19.171 15.3816 22.0624 14.8963 24.9317 13.9257L25.1962 13.8365L24.669 12.4412L24.41 12.5287L24.4119 12.5269Z" fill="#1E1D40"/>
</g>
<defs>
<clipPath id="clip0_3685_208">
<rect width="32.1593" height="21" fill="white" transform="translate(0.196289 0.560547)"/>
</clipPath>
</defs>
</svg>
